paymentMethods/bitcoin.svg

<svg width="128" height="64" viewBox="0 0 128 64" fill="none" xmlns="http://www.w3.org/2000/svg">
<rect width="128" height="64" rx="6" fill="white"/>
<path d="M24.385 28.6741L23.812 30.9815C24.4581 31.1392 26.454 31.7968 26.7771 30.5047C27.1001 29.2125 25.035 28.8356 24.385 28.6741Z" fill="#F7931A"/>
<path d="M23.5275 32.1161L22.9006 34.6351C23.6698 34.8273 26.0695 35.5965 26.4272 34.1774C26.7964 32.693 24.3043 32.3084 23.5275 32.1161Z" fill="#F7931A"/>
<path d="M26.9617 21.8672C24.9587 21.368 22.8526 21.4739 20.9098 22.1716C18.967 22.8692 17.2747 24.1274 16.0469 25.7868C14.8191 27.4463 14.1109 29.4326 14.012 31.4945C13.9131 33.5564 14.4278 35.6013 15.491 37.3707C16.5543 39.1401 18.1183 40.5545 19.9854 41.435C21.8525 42.3155 23.9387 42.6226 25.9803 42.3174C28.0219 42.0123 29.9272 41.1086 31.4552 39.7206C32.9832 38.3326 34.0653 36.5227 34.5647 34.5197C34.8968 33.1897 34.9636 31.8073 34.7612 30.4515C34.5588 29.0956 34.0912 27.793 33.3851 26.6179C32.679 25.4429 31.7483 24.4186 30.6461 23.6034C29.544 22.7882 28.292 22.1983 26.9617 21.8672V21.8672ZM29.0422 30.5048C29.0182 30.9073 28.8619 31.2906 28.5976 31.5952C28.3334 31.8998 27.9759 32.1086 27.5808 32.1892C28.6153 32.7238 29.1307 33.5314 28.6153 34.9659C28 36.7311 26.5309 36.8887 24.5773 36.5042L24.1043 38.404L22.9505 38.1194L23.4159 36.2426C23.1198 36.1696 22.8159 36.0927 22.5044 36.0081L22.0776 37.8963L20.9238 37.6117L21.3969 35.6889L20.5777 35.4773L19.0894 35.0928L19.6586 33.7814C19.6586 33.7814 20.5008 34.0044 20.4893 33.989C20.5418 34.0058 20.5971 34.012 20.652 34.0073C20.7069 34.0026 20.7604 33.9871 20.8093 33.9618C20.8583 33.9364 20.9017 33.9017 20.9372 33.8595C20.9727 33.8173 20.9995 33.7685 21.0161 33.716L21.7622 30.7125L21.8853 30.7432C21.8466 30.7274 21.8067 30.7145 21.7661 30.7048L22.3006 28.5627C22.3168 28.4038 22.2698 28.2449 22.1698 28.1204C22.0698 27.9959 21.9247 27.9157 21.7661 27.8974C21.7661 27.8974 20.9238 27.7243 20.9238 27.7243L21.2276 26.5014L22.8083 26.8859L23.5428 27.0551L24.0004 25.19L25.1542 25.4784L24.6965 27.3205L25.6118 27.5359L26.0695 25.7053L27.2232 25.9899L26.754 27.8704C28.1923 28.3704 29.2499 29.1165 29.0422 30.5048Z" fill="#F7931A"/>
<path d="M44.5944 27.8704C45.3498 27.8512 46.0996 28.0051 46.7864 28.3203C47.3843 28.6042 47.9102 29.0197 48.3247 29.5356C48.7398 30.0688 49.0444 30.6793 49.2208 31.3316C49.4191 32.0544 49.5174 32.801 49.5131 33.5506C49.521 35.889 48.6207 38.1393 47.0018 39.8268C46.2193 40.6333 45.2865 41.2787 44.2559 41.7266C43.1734 42.1995 42.003 42.438 40.8217 42.4266H39.9872C39.5276 42.4089 39.0693 42.3665 38.6142 42.2997C38.1027 42.2266 37.5605 42.1189 36.9875 41.9805C36.4262 41.8449 35.8809 41.6503 35.3607 41.3997L39.9449 22.1902L44.0367 21.5557L42.4023 28.3742C42.7415 28.2153 43.0942 28.0866 43.456 27.9896C43.8335 27.8968 44.2211 27.8516 44.6097 27.855L44.5944 27.8704ZM41.1601 39.1807C41.7695 39.1803 42.3689 39.0255 42.9022 38.7308C43.4517 38.4311 43.9335 38.0213 44.3175 37.5271C44.7179 37.0177 45.0346 36.4478 45.2558 35.8388C45.4838 35.2021 45.5996 34.5307 45.5981 33.8544C45.6333 33.1685 45.4874 32.4855 45.1751 31.8738C44.8943 31.4008 44.3752 31.1624 43.6368 31.1624C43.3114 31.1735 42.9881 31.2173 42.6715 31.2931C42.2733 31.3846 41.9053 31.5766 41.6024 31.8507L39.841 39.0731L40.1179 39.1269C40.1992 39.1441 40.2814 39.1569 40.364 39.1654C40.4563 39.1654 40.5602 39.1654 40.6832 39.1654L41.1601 39.1807Z" fill="#4D4D4D"/>
<path d="M53.7551 42.0611H49.844L53.1475 28.1472H57.074L53.7551 42.0611ZM55.6549 26.4705C55.1223 26.475 54.6031 26.3033 54.1782 25.9821C53.9531 25.8074 53.7749 25.5797 53.6595 25.3193C53.5441 25.0589 53.495 24.7739 53.5167 24.4899C53.5142 24.1304 53.5903 23.7747 53.7397 23.4477C53.8824 23.1301 54.0847 22.8428 54.3358 22.6016C54.5848 22.3615 54.8754 22.1686 55.1934 22.0325C55.5229 21.8921 55.8775 21.8201 56.2356 21.821C56.7692 21.8182 57.2891 21.9897 57.7162 22.3094C57.94 22.486 58.1173 22.7146 58.2325 22.9753C58.3478 23.236 58.3977 23.521 58.3777 23.8054C58.379 24.1652 58.3016 24.5209 58.1508 24.8476C58.0082 25.1642 57.8073 25.4512 57.5586 25.6936C57.3054 25.9341 57.011 26.1269 56.6894 26.2628C56.3589 26.4038 56.0027 26.4745 55.6434 26.4705H55.6549Z" fill="#4D4D4D"/>
<path d="M60.5081 24.6861L64.6039 24.0515L63.6117 28.1472H67.9958L67.2036 31.37H62.8425L61.6888 36.231C61.5856 36.6077 61.5237 36.9946 61.5042 37.3847C61.4781 37.6958 61.5228 38.0087 61.635 38.3C61.7456 38.5606 61.9482 38.7714 62.2041 38.8923C62.5673 39.0505 62.9621 39.1229 63.3578 39.1038C63.771 39.1055 64.1833 39.0655 64.5885 38.9846C64.996 38.9039 65.3971 38.7934 65.7884 38.6538L66.0806 41.6689C65.5202 41.8721 64.9473 42.0391 64.3654 42.1688C63.6436 42.3209 62.9071 42.3918 62.1695 42.3804C61.1978 42.4296 60.2284 42.245 59.3429 41.842C58.7142 41.5212 58.2117 40.9984 57.9161 40.3575C57.6206 39.6811 57.4888 38.9446 57.5315 38.2077C57.5789 37.3425 57.7076 36.4837 57.9161 35.6426L60.5081 24.6861Z" fill="#4D4D4D"/>
<path d="M67.8151 36.5118C67.8069 35.3582 68.0036 34.2124 68.3958 33.1275C68.7625 32.1024 69.3284 31.1601 70.061 30.3547C70.7968 29.5519 71.693 28.9125 72.6915 28.478C73.7833 28.0055 74.9632 27.7708 76.1527 27.7896C76.8681 27.7817 77.5818 27.8578 78.2794 28.0165C78.8663 28.1543 79.4373 28.3528 79.9831 28.6088L78.6371 31.6854C78.2833 31.5431 77.9179 31.4162 77.541 31.3008C77.0891 31.176 76.6214 31.1177 76.1527 31.1277C75.5667 31.1011 74.9824 31.209 74.4445 31.4429C73.9066 31.6769 73.4293 32.0308 73.0492 32.4776C72.28 33.3737 71.8955 34.5812 71.8955 36.0964C71.8552 36.8612 72.0512 37.6198 72.4569 38.2693C72.8441 38.8231 73.5568 39.1 74.5952 39.1C75.093 39.1008 75.5894 39.0479 76.0758 38.9423C76.51 38.8542 76.9349 38.7255 77.3449 38.5577L77.6372 41.6997C77.1018 41.9051 76.5548 42.0784 75.9989 42.2189C75.2961 42.3774 74.5771 42.4523 73.8568 42.4419C72.9102 42.4666 71.968 42.3045 71.084 41.9651C70.3731 41.679 69.7328 41.2421 69.2073 40.6844C68.7125 40.1426 68.3469 39.4957 68.1382 38.7923C67.916 38.0566 67.8045 37.2919 67.8074 36.5233L67.8151 36.5118Z" fill="#4D4D4D"/>
<path d="M85.1864 42.4304C84.3552 42.4482 83.5285 42.3046 82.752 42.0073C82.0997 41.7489 81.5174 41.3405 81.0522 40.8151C80.5926 40.2886 80.2457 39.6734 80.0331 39.0076C79.7962 38.2618 79.6806 37.4827 79.6908 36.7002C79.6926 35.6232 79.8665 34.5534 80.2061 33.5313C80.5363 32.4963 81.051 31.5296 81.7252 30.6777C82.3968 29.8277 83.2325 29.1214 84.1826 28.601C85.2039 28.0509 86.3494 27.7728 87.5092 27.7934C88.3355 27.7791 89.1567 27.9241 89.9282 28.2203C90.5865 28.4761 91.1753 28.8832 91.6472 29.4086C92.1048 29.9389 92.4502 30.5564 92.6625 31.2238C92.898 31.97 93.0135 32.7489 93.0048 33.5313C93.0005 34.6081 92.8319 35.678 92.5049 36.704C92.1834 37.7351 91.6821 38.7011 91.0242 39.5576C90.3611 40.4027 89.5295 41.1008 88.5822 41.6074C87.5378 42.1622 86.3687 42.4403 85.1864 42.415V42.4304ZM87.14 31.12C86.5851 31.1094 86.0429 31.287 85.6017 31.6238C85.1512 31.9683 84.7745 32.3999 84.4942 32.8929C84.1872 33.4154 83.9591 33.9804 83.8173 34.5696C83.6733 35.1354 83.5984 35.7165 83.5942 36.3002C83.5582 37.0117 83.7024 37.7207 84.0134 38.3616C84.298 38.8538 84.8108 39.0999 85.5517 39.0999C86.1067 39.1109 86.649 38.9333 87.09 38.5961C87.5396 38.2521 87.9161 37.822 88.1976 37.3309C88.5016 36.8069 88.7295 36.2423 88.8745 35.6541C89.0164 35.088 89.0913 34.5072 89.0975 33.9236C89.1341 33.2117 88.9885 32.5022 88.6745 31.8622C88.5124 31.6078 88.2826 31.4035 88.0109 31.2724C87.7391 31.1413 87.4362 31.0885 87.1362 31.12H87.14Z" fill="#4D4D4D"/>
<path d="M97.2659 42.0611H93.351L96.6545 28.1472H100.593L97.2659 42.0611ZM99.1657 26.4705C98.6318 26.4755 98.1112 26.3038 97.6851 25.9821C97.4606 25.8069 97.2828 25.5791 97.1674 25.3189C97.052 25.0586 97.0027 24.7738 97.0236 24.4899C97.0223 24.1301 97.0998 23.7744 97.2505 23.4477C97.3932 23.1301 97.5955 22.8428 97.8466 22.6016C98.0963 22.3624 98.3868 22.1696 98.7042 22.0325C99.0336 21.8917 99.3883 21.8198 99.7464 21.821C100.28 21.8182 100.8 21.9897 101.227 22.3094C101.451 22.486 101.628 22.7146 101.743 22.9753C101.859 23.236 101.908 23.521 101.889 23.8054C101.888 24.165 101.811 24.5203 101.662 24.8476C101.521 25.1652 101.32 25.4525 101.069 25.6936C100.819 25.9321 100.529 26.1247 100.212 26.2628C99.8813 26.4038 99.525 26.4745 99.1657 26.4705V26.4705Z" fill="#4D4D4D"/>
<path d="M103.411 28.7972L104.4 28.4934C104.761 28.378 105.169 28.2742 105.619 28.178C106.115 28.0714 106.617 27.9919 107.122 27.9396C107.75 27.871 108.38 27.8389 109.011 27.8434C111.062 27.8434 112.485 28.4434 113.28 29.6432C114.074 30.8431 114.211 32.4814 113.691 34.5581L111.891 42.0612H107.953L109.699 34.7158C109.803 34.2543 109.888 33.812 109.949 33.3775C110.018 32.9959 110.018 32.6053 109.949 32.2237C109.884 31.9109 109.711 31.6307 109.461 31.4315C109.113 31.2028 108.699 31.0959 108.284 31.1277C107.761 31.1289 107.239 31.183 106.726 31.2892L104.161 42.0573H100.212L103.411 28.7972Z" fill="#4D4D4D"/>
</svg>

<svg xmlns="http://www.w3.org/2000/svg" width="128" height="64" fill="none"><rect width="128" height="64" fill="#fff" rx="6"/><path fill="#F7931A" d="m24.385 28.674-.573 2.308c.646.157 2.642.815 2.965-.477.323-1.293-1.742-1.67-2.392-1.83ZM23.527 32.116l-.626 2.52c.769.191 3.169.96 3.526-.459.37-1.484-2.123-1.869-2.9-2.06Z"/><path fill="#F7931A" d="M26.962 21.867a10.438 10.438 0 1 0-5.049 20.256 10.438 10.438 0 0 0 5.049-20.256Zm2.08 8.638a1.83 1.83 0 0 1-1.461 1.684c1.034.535 1.55 1.342 1.034 2.777-.615 1.765-2.084 1.923-4.038 1.538l-.473 1.9-1.153-.285.465-1.876c-.296-.073-.6-.15-.912-.235l-.426 1.888-1.154-.284.473-1.923-.82-.212-1.488-.384.57-1.312s.842.223.83.208a.417.417 0 0 0 .527-.273l.746-3.004.123.031a.82.82 0 0 0-.119-.038l.535-2.142a.608.608 0 0 0-.535-.666l-.842-.173.304-1.223 1.58.385.735.17L24 25.19l1.154.288-.457 1.842.915.216.458-1.83 1.153.284-.469 1.88c1.438.5 2.496 1.246 2.288 2.635Z"/><path fill="#4D4D4D" d="M44.594 27.87a4.953 4.953 0 0 1 2.192.45c.598.284 1.124.7 1.539 1.216.415.533.72 1.143.896 1.796.198.722.296 1.469.292 2.219a9.022 9.022 0 0 1-2.511 6.276 8.604 8.604 0 0 1-2.746 1.9 8.377 8.377 0 0 1-3.434.7h-.835c-.46-.018-.918-.06-1.373-.127a17.527 17.527 0 0 1-1.627-.32 8.167 8.167 0 0 1-1.626-.58l4.584-19.21 4.092-.634-1.635 6.818c.34-.159.692-.287 1.054-.384a4.662 4.662 0 0 1 1.154-.135l-.016.015ZM41.16 39.18c.61 0 1.209-.154 1.742-.45.55-.299 1.032-.709 1.416-1.203.4-.51.717-1.08.938-1.688a5.848 5.848 0 0 0 .342-1.985 3.914 3.914 0 0 0-.423-1.98c-.28-.473-.8-.712-1.538-.712a4.856 4.856 0 0 0-.965.131 2.392 2.392 0 0 0-1.07.558l-1.761 7.222.277.054c.081.017.163.03.246.038h.32l.476.016ZM53.755 42.061h-3.911l3.303-13.914h3.927l-3.319 13.914Zm1.9-15.59a2.415 2.415 0 0 1-1.477-.489 1.722 1.722 0 0 1-.661-1.492c-.003-.36.073-.715.223-1.042.142-.318.345-.605.596-.846.249-.24.54-.433.857-.57.33-.14.684-.212 1.043-.211a2.45 2.45 0 0 1 1.48.488 1.749 1.749 0 0 1 .662 1.496c.001.36-.076.716-.227 1.043a2.77 2.77 0 0 1-.592.846c-.254.24-.548.433-.87.569-.33.14-.686.211-1.046.207h.012ZM60.508 24.686l4.096-.634-.992 4.095h4.384l-.792 3.223h-4.361l-1.154 4.861a5.384 5.384 0 0 0-.185 1.154c-.026.31.019.624.131.915.11.26.313.471.57.592.362.158.757.23 1.153.212.413.002.825-.038 1.23-.12.408-.08.81-.19 1.2-.33l.293 3.015c-.56.203-1.134.37-1.716.5a9.907 9.907 0 0 1-2.195.211 6.082 6.082 0 0 1-2.827-.538 3.146 3.146 0 0 1-1.427-1.484 4.692 4.692 0 0 1-.384-2.15c.047-.865.176-1.724.384-2.565l2.592-10.957ZM67.815 36.512a9.75 9.75 0 0 1 .58-3.385 8.25 8.25 0 0 1 1.666-2.772 7.778 7.778 0 0 1 2.63-1.877 8.381 8.381 0 0 1 3.462-.688 9.132 9.132 0 0 1 2.126.227 8.69 8.69 0 0 1 1.704.592l-1.346 3.076c-.354-.142-.72-.269-1.096-.384a4.828 4.828 0 0 0-1.388-.173 3.846 3.846 0 0 0-3.104 1.35c-.769.896-1.154 2.103-1.154 3.618a3.73 3.73 0 0 0 .562 2.173c.387.554 1.1.831 2.138.831.498 0 .994-.052 1.48-.158.435-.088.86-.217 1.27-.384l.292 3.142c-.535.205-1.082.378-1.638.519a9.137 9.137 0 0 1-2.142.223 7.211 7.211 0 0 1-2.773-.477 5.294 5.294 0 0 1-1.877-1.28 4.853 4.853 0 0 1-1.069-1.893 7.747 7.747 0 0 1-.33-2.269l.007-.011ZM85.186 42.43a6.423 6.423 0 0 1-2.434-.423 4.468 4.468 0 0 1-1.7-1.192 5.114 5.114 0 0 1-1.019-1.807 7.307 7.307 0 0 1-.342-2.308c.002-1.077.175-2.147.515-3.169a9.012 9.012 0 0 1 1.52-2.853 8.077 8.077 0 0 1 2.457-2.077 6.762 6.762 0 0 1 3.326-.808 6.438 6.438 0 0 1 2.42.427 4.503 4.503 0 0 1 1.718 1.189c.458.53.803 1.147 1.015 1.815.236.746.351 1.525.343 2.307a10.587 10.587 0 0 1-.5 3.173 9.16 9.16 0 0 1-1.48 2.854 7.75 7.75 0 0 1-2.443 2.05 6.923 6.923 0 0 1-3.396.807v.015Zm1.954-11.31a2.458 2.458 0 0 0-1.538.504 4.23 4.23 0 0 0-1.108 1.269 6.15 6.15 0 0 0-.677 1.677 7.227 7.227 0 0 0-.223 1.73c-.036.712.108 1.42.42 2.062.284.492.797.738 1.538.738a2.453 2.453 0 0 0 1.538-.504c.45-.344.826-.774 1.108-1.265a6.389 6.389 0 0 0 .677-1.677 7.442 7.442 0 0 0 .222-1.73 4.191 4.191 0 0 0-.422-2.062 1.624 1.624 0 0 0-1.539-.742h.004ZM97.266 42.061H93.35l3.303-13.914h3.939l-3.327 13.914Zm1.9-15.59a2.42 2.42 0 0 1-1.48-.489 1.732 1.732 0 0 1-.662-1.492c-.002-.36.076-.716.227-1.042.142-.318.344-.605.596-.846.25-.24.54-.432.857-.57a2.63 2.63 0 0 1 1.042-.211 2.45 2.45 0 0 1 1.481.488 1.744 1.744 0 0 1 .662 1.496c-.001.36-.078.715-.227 1.043a2.68 2.68 0 0 1-.593.846c-.25.238-.54.43-.857.569-.33.14-.687.211-1.046.207ZM103.411 28.797l.989-.304c.361-.115.769-.219 1.219-.315a16.314 16.314 0 0 1 3.392-.335c2.051 0 3.474.6 4.269 1.8.794 1.2.931 2.838.411 4.915l-1.8 7.503h-3.938l1.746-7.345c.104-.462.189-.904.25-1.339a3.241 3.241 0 0 0 0-1.153 1.37 1.37 0 0 0-.488-.792 1.882 1.882 0 0 0-1.177-.304 7.774 7.774 0 0 0-1.558.161l-2.565 10.768h-3.949l3.199-13.26Z"/></svg>
